themes/default/static/logos/pkg/eks.svg

<svg width="58" height="58" viewBox="0 0 58 58" fill="none" xmlns="http://www.w3.org/2000/svg">
<path d="M58 0H0V58H58V0Z" fill="url(#gradient_50:99)"/>
<path d="M29 49.8875C28.8645 49.8888 28.731 49.8543 28.613 49.7875L10.827 39.5175C10.7089 39.4497 10.6109 39.3517 10.5429 39.2337C10.4749 39.1157 10.4394 38.9817 10.44 38.8455V18.3045C10.4394 18.1682 10.4749 18.0341 10.5429 17.9159C10.6109 17.7977 10.7089 17.6996 10.827 17.6315L27.067 8.2125C27.1849 8.1447 27.3185 8.10913 27.4544 8.10938C27.5904 8.10962 27.7238 8.14567 27.8414 8.21389C27.959 8.28211 28.0566 8.3801 28.1243 8.498C28.1919 8.6159 28.2274 8.74954 28.227 8.88549V17.7855C28.2274 17.9218 28.1918 18.0558 28.1239 18.1739C28.0559 18.2921 27.958 18.3903 27.84 18.4585L19.72 23.1985V33.9245L29 39.2835L37.1 34.6435C37.2175 34.5757 37.3508 34.5399 37.4865 34.5399C37.6222 34.5399 37.7555 34.5757 37.873 34.6435L45.606 39.1065C45.7252 39.1737 45.8244 39.2714 45.8935 39.3896C45.9625 39.5077 45.9989 39.6421 45.9989 39.779C45.9989 39.9159 45.9625 40.0502 45.8935 40.1684C45.8244 40.2866 45.7252 40.3843 45.606 40.4515L29.385 49.7865C29.2677 49.8531 29.135 49.888 29 49.8875ZM11.985 38.3955L28.998 48.2245L43.691 39.7175L37.505 36.1455L29.385 40.8545C29.2673 40.9223 29.1339 40.958 28.998 40.958C28.8622 40.958 28.7287 40.9223 28.611 40.8545L18.558 35.0475C18.44 34.9793 18.3421 34.8811 18.2742 34.7629C18.2062 34.6448 18.1706 34.5108 18.171 34.3745V22.7745C18.1705 22.6382 18.2061 22.5041 18.274 22.386C18.342 22.2678 18.44 22.1697 18.558 22.1015L26.678 17.3765V10.2235L11.985 18.7295V38.3955Z" fill="white"/>
<path d="M46.785 37.839C46.6494 37.8403 46.5159 37.8058 46.398 37.739L38.665 33.292C38.5459 33.228 38.4489 33.1295 38.3867 33.0094C38.3246 32.8893 38.3003 32.7532 38.317 32.619V23.2L30.158 18.56C30.0399 18.4918 29.942 18.3937 29.874 18.2755C29.8061 18.1573 29.7705 18.0233 29.771 17.887V8.97098C29.7705 8.83466 29.8061 8.70062 29.874 8.58244C29.942 8.46427 30.0399 8.36613 30.158 8.29797C30.2769 8.23442 30.4097 8.20117 30.5445 8.20117C30.6793 8.20117 30.8121 8.23442 30.931 8.29797L47.171 17.632C47.289 17.7002 47.3869 17.7984 47.4548 17.9165C47.5228 18.0347 47.5584 18.1687 47.558 18.305V37.066C47.558 37.271 47.4766 37.4676 47.3316 37.6126C47.1866 37.7575 46.99 37.839 46.785 37.839ZM39.825 32.178L46.011 35.72V18.755L31.318 10.311V17.448L39.438 22.088C39.5549 22.1557 39.6521 22.2528 39.72 22.3696C39.7878 22.4864 39.824 22.6189 39.825 22.754V32.178Z" fill="white"/>
<path d="M25.133 34.4066V22.8066H26.685V28.0886L31.712 22.8066H33.753L28.505 28.4556L34.205 34.4106H32.093L26.685 28.9926V34.4066H25.133Z" fill="white"/>
<defs>
<linearGradient id="gradient_50:99" x1="-12.01" y1="70.01" x2="70.01" y2="-12.01" gradientUnits="userSpaceOnUse">
<stop stop-color="#C8511B"/>
<stop offset="1" stop-color="#FF9900"/>
</linearGradient>
</defs>
</svg>

<?xml version="1.0" encoding="utf-8"?>
<!-- Generator: Adobe Illustrator 25.4.1, SVG Export Plug-In . SVG Version: 6.00 Build 0)  -->
<svg version="1.1" id="Layer_1" xmlns="http://www.w3.org/2000/svg" xmlns:xlink="http://www.w3.org/1999/xlink" x="0px" y="0px"
	 viewBox="0 0 58 58" style="enable-background:new 0 0 58 58;" xml:space="preserve">
<style type="text/css">
	.st0{fill:url(#SVGID_1_);}
	.st1{fill:#FFFFFF;}
</style>
<linearGradient id="SVGID_1_" gradientUnits="userSpaceOnUse" x1="-12.01" y1="-12.1202" x2="70.01" y2="69.8998" gradientTransform="matrix(1 0 0 -1 0 57.8898)">
	<stop  offset="0" style="stop-color:#C8511B"/>
	<stop  offset="1" style="stop-color:#FF9900"/>
</linearGradient>
<path class="st0" d="M58,0H0v58h58V0z"/>
<path class="st1" d="M29,49.9c-0.1,0-0.3,0-0.4-0.1L10.8,39.5c-0.1-0.1-0.2-0.2-0.3-0.3s-0.1-0.3-0.1-0.4V18.3c0-0.1,0-0.3,0.1-0.4
	c0.1-0.1,0.2-0.2,0.3-0.3l16.2-9.4c0.1-0.1,0.3-0.1,0.4-0.1c0.1,0,0.3,0,0.4,0.1s0.2,0.2,0.3,0.3c0.1,0.1,0.1,0.3,0.1,0.4v8.9
	c0,0.1,0,0.3-0.1,0.4c-0.1,0.1-0.2,0.2-0.3,0.3l-8.1,4.7v10.7l9.3,5.4l8.1-4.6c0.1-0.1,0.3-0.1,0.4-0.1s0.3,0,0.4,0.1l7.7,4.5
	c0.1,0.1,0.2,0.2,0.3,0.3c0.1,0.1,0.1,0.3,0.1,0.4c0,0.1,0,0.3-0.1,0.4c-0.1,0.1-0.2,0.2-0.3,0.3l-16.2,9.3
	C29.3,49.9,29.1,49.9,29,49.9z M12,38.4l17,9.8l14.7-8.5l-6.2-3.6l-8.1,4.7C29.3,40.9,29.1,41,29,41c-0.1,0-0.3,0-0.4-0.1L18.6,35
	c-0.1-0.1-0.2-0.2-0.3-0.3c-0.1-0.1-0.1-0.3-0.1-0.4V22.8c0-0.1,0-0.3,0.1-0.4c0.1-0.1,0.2-0.2,0.3-0.3l8.1-4.7v-7.2L12,18.7V38.4z"
	/>
<path class="st1" d="M46.8,37.8c-0.1,0-0.3,0-0.4-0.1l-7.7-4.4c-0.1-0.1-0.2-0.2-0.3-0.3c-0.1-0.1-0.1-0.3-0.1-0.4v-9.4l-8.2-4.6
	c-0.1-0.1-0.2-0.2-0.3-0.3c-0.1-0.1-0.1-0.3-0.1-0.4V9c0-0.1,0-0.3,0.1-0.4c0.1-0.1,0.2-0.2,0.3-0.3c0.1-0.1,0.3-0.1,0.4-0.1
	s0.3,0,0.4,0.1l16.2,9.3c0.1,0.1,0.2,0.2,0.3,0.3c0.1,0.1,0.1,0.3,0.1,0.4v18.8c0,0.2-0.1,0.4-0.2,0.5C47.2,37.8,47,37.8,46.8,37.8z
	 M39.8,32.2l6.2,3.5v-17l-14.7-8.4v7.1l8.1,4.6c0.1,0.1,0.2,0.2,0.3,0.3c0.1,0.1,0.1,0.2,0.1,0.4V32.2z"/>
<path class="st1" d="M25.1,34.4V22.8h1.6v5.3l5-5.3h2l-5.2,5.6l5.7,6h-2.1L26.7,29v5.4H25.1z"/>
</svg>
